flaticon/constructions/swiss-army-knife-2.svg

<svg xmlns="http://www.w3.org/2000/svg" width="32" height="32" viewBox="0 0 24 24">
    <path d="M12.003906 17.601562C10.683594 17.601562 9.605469 18.679688 9.605469 20 9.605469 21.320312 10.683594 22.398438 12.003906 22.398438 13.324219 22.398438 14.40625 21.320312 14.40625 20 14.40625 18.679688 13.324219 17.601562 12.003906 17.601562zM12.003906 21.601562C11.125 21.601562 10.40625 20.878906 10.40625 20 10.40625 19.121094 11.125 18.398438 12.003906 18.398438 12.882812 18.398438 13.605469 19.121094 13.605469 20 13.605469 20.878906 12.882812 21.601562 12.003906 21.601562zM12.003906 6.398438C13.324219 6.398438 14.40625 5.320312 14.40625 4 14.40625 2.679688 13.324219 1.601562 12.003906 1.601562 10.683594 1.601562 9.605469 2.679688 9.605469 4 9.605469 5.320312 10.683594 6.398438 12.003906 6.398438zM12.003906 2.398438C12.882812 2.398438 13.605469 3.121094 13.605469 4 13.605469 4.878906 12.882812 5.601562 12.003906 5.601562 11.125 5.601562 10.40625 4.878906 10.40625 4 10.40625 3.121094 11.125 2.398438 12.003906 2.398438zM12.003906 2.398438"/>
    <path d="M 22.765625 16.601562 L 16.804688 5.078125 L 16.804688 4.800781 C 16.804688 2.160156 14.644531 0 12.003906 0 C 9.390625 0 7.25 2.117188 7.207031 4.722656 L 2.578125 11.816406 C 2.558594 11.835938 2.539062 11.855469 2.523438 11.878906 L 1.285156 13.800781 C 1.246094 13.839844 1.203125 13.921875 1.203125 14 L 1.203125 16.667969 C 1.171875 16.804688 1.191406 16.945312 1.285156 17.039062 C 1.320312 17.09375 1.363281 17.128906 1.410156 17.152344 C 1.433594 17.171875 1.457031 17.1875 1.484375 17.199219 C 1.523438 17.199219 1.566406 17.199219 1.605469 17.199219 C 1.644531 17.199219 1.726562 17.199219 1.765625 17.199219 L 4.40625 16.039062 C 4.484375 16 4.523438 15.960938 4.605469 15.878906 L 7.203125 12.121094 L 7.203125 19.199219 C 7.203125 21.839844 9.363281 24 12.003906 24 C 14.644531 24 16.804688 21.839844 16.804688 19.199219 L 16.804688 14.546875 C 18.101562 15.851562 19.976562 17.132812 22.40625 17.199219 C 22.566406 17.199219 22.683594 17.121094 22.765625 17 C 22.804688 16.878906 22.84375 16.71875 22.765625 16.601562 Z M 4.765625 14.199219 L 4.003906 15.320312 L 2.847656 15.847656 L 2.691406 15.914062 L 2.949219 15.507812 L 3.609375 14.480469 Z M 2.683594 13.078125 L 2.90625 13.96875 L 2.003906 15.375 L 2.003906 14.121094 Z M 5.441406 13.257812 L 3.628906 13.632812 L 3.28125 12.164062 L 7.203125 6.160156 L 7.203125 10.679688 Z M 16.003906 19.199219 C 16.003906 21.398438 14.203125 23.199219 12.003906 23.199219 C 9.804688 23.199219 8.003906 21.398438 8.003906 19.199219 L 8.003906 4.800781 C 8.003906 2.601562 9.804688 0.800781 12.003906 0.800781 C 14.203125 0.800781 16.003906 2.601562 16.003906 4.800781 Z M 16.804688 13.359375 L 16.804688 10.117188 L 17.644531 11.839844 C 17.726562 12 17.84375 12.078125 18.003906 12.078125 C 18.085938 12.078125 18.125 12.039062 18.164062 12.039062 C 18.363281 11.960938 18.445312 11.71875 18.363281 11.519531 L 16.804688 8.320312 L 16.804688 6.839844 L 21.726562 16.320312 C 19.523438 16.039062 17.84375 14.601562 16.804688 13.359375 Z M 16.804688 13.359375"/>
    <path d="M 14.804688 10.398438 L 13.605469 10.398438 L 13.605469 9.199219 C 13.605469 8.960938 13.445312 8.800781 13.203125 8.800781 L 10.804688 8.800781 C 10.566406 8.800781 10.40625 8.960938 10.40625 9.199219 L 10.40625 10.398438 L 9.203125 10.398438 C 8.964844 10.398438 8.804688 10.558594 8.804688 10.800781 L 8.804688 13.199219 C 8.804688 13.441406 8.964844 13.601562 9.203125 13.601562 L 10.40625 13.601562 L 10.40625 14.800781 C 10.40625 15.039062 10.566406 15.199219 10.804688 15.199219 L 13.203125 15.199219 C 13.445312 15.199219 13.605469 15.039062 13.605469 14.800781 L 13.605469 13.601562 L 14.804688 13.601562 C 15.042969 13.601562 15.203125 13.441406 15.203125 13.199219 L 15.203125 10.800781 C 15.203125 10.558594 15.042969 10.398438 14.804688 10.398438 Z M 14.40625 12.800781 L 13.203125 12.800781 C 12.964844 12.800781 12.804688 12.960938 12.804688 13.199219 L 12.804688 14.398438 L 11.203125 14.398438 L 11.203125 13.199219 C 11.203125 12.960938 11.042969 12.800781 10.804688 12.800781 L 9.605469 12.800781 L 9.605469 11.199219 L 10.804688 11.199219 C 11.042969 11.199219 11.203125 11.039062 11.203125 10.800781 L 11.203125 9.601562 L 12.804688 9.601562 L 12.804688 10.800781 C 12.804688 11.039062 12.964844 11.199219 13.203125 11.199219 L 14.40625 11.199219 Z M 14.40625 12.800781"/>
</svg>

<svg xmlns="http://www.w3.org/2000/svg" width="32" height="32" viewBox="0 0 24 24">
    <path d="M12.004 17.602A2.404 2.404 0 0 0 9.605 20a2.404 2.404 0 0 0 2.399 2.398A2.407 2.407 0 0 0 14.406 20a2.407 2.407 0 0 0-2.402-2.398zm0 4A1.605 1.605 0 0 1 10.406 20c0-.879.719-1.602 1.598-1.602.879 0 1.601.723 1.601 1.602 0 .879-.722 1.602-1.601 1.602zm0 0M12.004 6.398A2.407 2.407 0 0 0 14.406 4a2.407 2.407 0 0 0-2.402-2.398A2.404 2.404 0 0 0 9.605 4a2.404 2.404 0 0 0 2.399 2.398zm0-4c.879 0 1.601.723 1.601 1.602 0 .879-.722 1.602-1.601 1.602A1.605 1.605 0 0 1 10.406 4c0-.879.719-1.602 1.598-1.602zm0 0"/>
    <path d="M22.766 16.602L16.805 5.078v-.277c0-2.64-2.16-4.801-4.801-4.801C9.39 0 7.25 2.117 7.207 4.723l-4.629 7.093c-.02.02-.039.04-.055.063L1.285 13.8a.311.311 0 0 0-.082.199v2.668c-.031.137-.012.277.082.371a.31.31 0 0 0 .125.113c.024.02.047.035.074.047h.281l2.641-1.16a.702.702 0 0 0 .2-.16l2.597-3.758V19.2c0 2.64 2.16 4.801 4.8 4.801 2.642 0 4.802-2.16 4.802-4.8v-4.653c1.297 1.305 3.172 2.586 5.601 2.652.16 0 .278-.078.36-.199.039-.121.078-.281 0-.398zm-18-2.403l-.762 1.121-1.156.528-.157.066.258-.406.66-1.028zm-2.082-1.12l.222.89-.902 1.406v-1.254zm2.757.179l-1.812.375-.348-1.469L7.203 6.16v4.52zm10.563 5.941c0 2.2-1.8 4-4 4s-4-1.8-4-4V4.801c0-2.2 1.8-4 4-4s4 1.8 4 4zm.8-5.84v-3.242l.84 1.723c.083.16.2.238.36.238.082 0 .121-.039.16-.039.2-.078.281-.32.2-.52l-1.56-3.199V6.84l4.923 9.48c-2.204-.28-3.883-1.718-4.922-2.96zm0 0"/>
    <path d="M14.805 10.398h-1.2V9.2c0-.238-.16-.398-.402-.398h-2.398c-.239 0-.399.16-.399.398v1.2H9.203c-.238 0-.398.16-.398.402v2.398c0 .242.16.403.398.403h1.203V14.8c0 .238.16.398.399.398h2.398c.242 0 .402-.16.402-.398v-1.2h1.2c.238 0 .398-.16.398-.402v-2.398c0-.242-.16-.403-.398-.403zm-.399 2.403h-1.203c-.238 0-.398.16-.398.398v1.2h-1.602v-1.2c0-.238-.16-.398-.398-.398h-1.2v-1.602h1.2c.238 0 .398-.16.398-.398V9.6h1.602v1.2c0 .238.16.398.398.398h1.203zm0 0"/>
</svg>
